P2
# Smooth left half, coarse checkerboard right half
32 32
255
80 80 80 80 80 80 80 80 82 82 82 82 82 82 82 82 30 230 30 230 30 230 30 230 30 230 30 230 30 230 30 230
80 80 80 80 80 80 80 80 82 82 82 82 82 82 82 82 230 30 230 30 230 30 230 30 230 30 230 30 230 30 230 30
80 80 80 80 80 80 80 80 82 82 82 82 82 82 82 82 30 230 30 230 30 230 30 230 30 230 30 230 30 230 30 230
80 80 80 80 80 80 80 80 82 82 82 82 82 82 82 82 230 30 230 30 230 30 230 30 230 30 230 30 230 30 230 30
82 82 82 82 82 82 82 82 84 84 84 84 84 84 84 84 30 230 30 230 30 230 30 230 30 230 30 230 30 230 30 230
82 82 82 82 82 82 82 82 84 84 84 84 84 84 84 84 230 30 230 30 230 30 230 30 230 30 230 30 230 30 230 30
82 82 82 82 82 82 82 82 84 84 84 84 84 84 84 84 30 230 30 230 30 230 30 230 30 230 30 230 30 230 30 230
82 82 82 82 82 82 82 82 84 84 84 84 84 84 84 84 230 30 230 30 230 30 230 30 230 30 230 30 230 30 230 30
84 84 84 84 84 84 84 84 86 86 86 86 86 86 86 86 30 230 30 230 30 230 30 230 30 230 30 230 30 230 30 230
84 84 84 84 84 84 84 84 86 86 86 86 86 86 86 86 230 30 230 30 230 30 230 30 230 30 230 30 230 30 230 30
84 84 84 84 84 84 84 84 86 86 86 86 86 86 86 86 30 230 30 230 30 230 30 230 30 230 30 230 30 230 30 230
84 84 84 84 84 84 84 84 86 86 86 86 86 86 86 86 230 30 230 30 230 30 230 30 230 30 230 30 230 30 230 30
86 86 86 86 86 86 86 86 88 88 88 88 88 88 88 88 30 230 30 230 30 230 30 230 30 230 30 230 30 230 30 230
86 86 86 86 86 86 86 86 88 88 88 88 88 88 88 88 230 30 230 30 230 30 230 30 230 30 230 30 230 30 230 30
86 86 86 86 86 86 86 86 88 88 88 88 88 88 88 88 30 230 30 230 30 230 30 230 30 230 30 230 30 230 30 230
86 86 86 86 86 86 86 86 88 88 88 88 88 88 88 88 230 30 230 30 230 30 230 30 230 30 230 30 230 30 230 30
90 90 90 90 90 90 90 90 92 92 92 92 92 92 92 92 40 220 40 220 40 220 40 220 40 220 40 220 40 220 40 220
90 90 90 90 90 90 90 90 92 92 92 92 92 92 92 92 220 40 220 40 220 40 220 40 220 40 220 40 220 40 220 40
90 90 90 90 90 90 90 90 92 92 92 92 92 92 92 92 40 220 40 220 40 220 40 220 40 220 40 220 40 220 40 220
90 90 90 90 90 90 90 90 92 92 92 92 92 92 92 92 220 40 220 40 220 40 220 40 220 40 220 40 220 40 220 40
92 92 92 92 92 92 92 92 94 94 94 94 94 94 94 94 40 220 40 220 40 220 40 220 40 220 40 220 40 220 40 220
92 92 92 92 92 92 92 92 94 94 94 94 94 94 94 94 220 40 220 40 220 40 220 40 220 40 220 40 220 40 220 40
92 92 92 92 92 92 92 92 94 94 94 94 94 94 94 94 40 220 40 220 40 220 40 220 40 220 40 220 40 220 40 220
92 92 92 92 92 92 92 92 94 94 94 94 94 94 94 94 220 40 220 40 220 40 220 40 220 40 220 40 220 40 220 40
94 94 94 94 94 94 94 94 96 96 96 96 96 96 96 96 40 220 40 220 40 220 40 220 40 220 40 220 40 220 40 220
94 94 94 94 94 94 94 94 96 96 96 96 96 96 96 96 220 40 220 40 220 40 220 40 220 40 220 40 220 40 220 40
94 94 94 94 94 94 94 94 96 96 96 96 96 96 96 96 40 220 40 220 40 220 40 220 40 220 40 220 40 220 40 220
94 94 94 94 94 94 94 94 96 96 96 96 96 96 96 96 220 40 220 40 220 40 220 40 220 40 220 40 220 40 220 40
96 96 96 96 96 96 96 96 98 98 98 98 98 98 98 98 40 220 40 220 40 220 40 220 40 220 40 220 40 220 40 220
96 96 96 96 96 96 96 96 98 98 98 98 98 98 98 98 220 40 220 40 220 40 220 40 220 40 220 40 220 40 220 40
96 96 96 96 96 96 96 96 98 98 98 98 98 98 98 98 40 220 40 220 40 220 40 220 40 220 40 220 40 220 40 220
96 96 96 96 96 96 96 96 98 98 98 98 98 98 98 98 220 40 220 40 220 40 220 40 220 40 220 40 220 40 220 40
